img/tds-icon.svg

<svg xmlns="http://www.w3.org/2000/svg" width="15" height="20" viewBox="0 0 15 20" fill="none">
  <path d="M7.49881 14.2578C6.19743 14.2578 5.13867 13.2064 5.13867 11.9141C5.13867 10.6217 6.19743 9.57031 7.49881 9.57031C8.8002 9.57031 9.85896 10.6217 9.85896 11.9141C9.85896 13.2064 8.8002 14.2578 7.49881 14.2578ZM7.49881 10.4297C6.67461 10.4297 6.00406 11.0956 6.00406 11.9141C6.00406 12.7325 6.67461 13.3984 7.49881 13.3984C8.32302 13.3984 8.99357 12.7325 8.99357 11.9141C8.99357 11.0956 8.32302 10.4297 7.49881 10.4297Z" fill="#707070"/>
  <path d="M14.497 0.499922C14.1728 0.177539 13.7414 0 13.2824 0H4.28759C4.17285 0 4.06279 0.0452734 3.98164 0.125859L0.12674 3.95398C0.0456294 4.03457 0 4.14387 0 4.25781V18.2943C3.93357e-05 19.2348 0.770547 20 1.71767 20H13.2824C13.7414 20 14.1728 19.8225 14.4966 19.5005C14.8212 19.1785 15 18.7502 15 18.2943V1.70574C15 1.24984 14.8212 0.821484 14.497 0.499922ZM4.46684 0.859375H4.49741V3.6198C4.49741 4.08645 4.11507 4.46613 3.64516 4.46613H0.865425V4.43582L4.46684 0.859375ZM14.1347 18.2943C14.1347 18.5204 14.046 18.7328 13.8847 18.8928C13.724 19.0526 13.51 19.1406 13.2824 19.1406H1.71767C1.24773 19.1406 0.865385 18.7609 0.865385 18.2943V5.32551H3.64512C4.59225 5.32551 5.36275 4.56031 5.36275 3.6198V0.859375H13.2824C13.51 0.859375 13.724 0.947383 13.8851 1.10758C14.046 1.26719 14.1346 1.47957 14.1346 1.7057V18.2943H14.1347Z" fill="#707070"/>
  <path d="M7.50112 17.4482C7.12027 17.4482 6.73942 17.4089 6.36121 17.3305C6.16068 17.2889 6.01699 17.1133 6.01699 16.9099V16.4046C5.789 16.3303 5.56706 16.239 5.35268 16.1313L4.99304 16.4886C4.8482 16.6325 4.62163 16.6559 4.45005 16.5444C3.80341 16.1241 3.26097 15.5855 2.83791 14.9434C2.72573 14.7732 2.74917 14.5481 2.89408 14.4042L3.25393 14.0471C3.14548 13.8342 3.05351 13.6138 2.9787 13.3874H2.46981C2.26495 13.3874 2.08814 13.2447 2.04624 13.0455C1.88823 12.2945 1.88823 11.5327 2.04624 10.7816C2.08814 10.5824 2.26495 10.4398 2.46981 10.4398H2.9787C3.05351 10.2134 3.14548 9.99293 3.25393 9.78008L2.89408 9.42293C2.74917 9.27906 2.72573 9.05402 2.83791 8.88375C3.26101 8.2416 3.80341 7.70301 4.45005 7.28277C4.62155 7.17137 4.8482 7.19469 4.99304 7.33855L5.35268 7.69586C5.56706 7.58816 5.789 7.49684 6.01699 7.42254V6.91719C6.01699 6.71375 6.16068 6.53816 6.36121 6.49656C7.1176 6.33969 7.88464 6.33969 8.64099 6.49656C8.84153 6.53812 8.98522 6.71371 8.98522 6.91719V7.42254C9.21321 7.49684 9.43514 7.58816 9.64952 7.69586L10.0092 7.33855C10.154 7.19469 10.3806 7.17133 10.5522 7.28277C11.1988 7.70301 11.7412 8.24164 12.1643 8.88375C12.2765 9.05398 12.253 9.27906 12.1081 9.42293L11.7483 9.78008C11.8567 9.99293 11.9487 10.2134 12.0235 10.4398H12.5324C12.7373 10.4398 12.9141 10.5824 12.9559 10.7816C13.1139 11.5327 13.1139 12.2944 12.9559 13.0455C12.914 13.2447 12.7372 13.3874 12.5324 13.3874H12.0235C11.9487 13.6138 11.8567 13.8342 11.7483 14.0471L12.1081 14.4042C12.253 14.5481 12.2765 14.7731 12.1643 14.9434C11.7412 15.5855 11.1988 16.1242 10.5522 16.5444C10.3807 16.6558 10.154 16.6325 10.0092 16.4886L9.64952 16.1313C9.43514 16.239 9.21321 16.3303 8.98522 16.4046V16.91C8.98522 17.1134 8.84153 17.289 8.64099 17.3305C8.26282 17.409 7.88197 17.4482 7.50112 17.4482ZM6.88241 16.5478C7.2941 16.6023 7.70819 16.6023 8.11987 16.5478V16.0818C8.11987 15.8846 8.25491 15.7129 8.44742 15.665C8.81875 15.5726 9.17407 15.4264 9.50339 15.2305C9.67363 15.1292 9.89147 15.1559 10.0318 15.2954L10.3634 15.6249C10.6934 15.3744 10.9862 15.0837 11.2384 14.756L10.9066 14.4266C10.7662 14.2873 10.7393 14.071 10.8412 13.9019C11.0385 13.5749 11.1857 13.2221 11.2788 12.8532C11.327 12.6621 11.5 12.528 11.6985 12.528H12.1678C12.2227 12.1192 12.2227 11.7079 12.1678 11.2991H11.6985C11.5 11.2991 11.327 11.165 11.2788 10.9739C11.1857 10.6051 11.0385 10.2523 10.8412 9.92523C10.7392 9.75617 10.7662 9.53988 10.9066 9.40051L11.2384 9.07113C10.9862 8.74348 10.6934 8.45277 10.3634 8.20227L10.0318 8.5318C9.89147 8.67117 9.67363 8.69793 9.50339 8.59664C9.17403 8.40074 8.81875 8.25457 8.44742 8.16219C8.25487 8.11434 8.11987 7.9425 8.11987 7.74539V7.27934C7.70819 7.2248 7.2941 7.2248 6.88241 7.27934V7.74539C6.88241 7.9425 6.74737 8.1143 6.55486 8.16219C6.18349 8.25457 5.82821 8.40074 5.49889 8.59664C5.32861 8.69789 5.11081 8.67121 4.9705 8.5318L4.63886 8.20227C4.30887 8.45277 4.0161 8.74348 3.76388 9.07113L4.09571 9.40051C4.2361 9.53984 4.26301 9.75613 4.16105 9.92523C3.96378 10.2523 3.81659 10.6051 3.72352 10.9739C3.67529 11.1651 3.50225 11.2991 3.30381 11.2991H2.83453C2.77958 11.7079 2.77958 12.1192 2.83453 12.528H3.30381C3.50225 12.528 3.67529 12.6621 3.72352 12.8532C3.81659 13.222 3.96378 13.5749 4.16105 13.9019C4.26305 14.071 4.2361 14.2873 4.09571 14.4266L3.76388 14.756C4.0161 15.0837 4.30887 15.3744 4.63886 15.6249L4.9705 15.2954C5.11081 15.156 5.32865 15.1292 5.49889 15.2305C5.82825 15.4264 6.18353 15.5726 6.55486 15.665C6.74741 15.7129 6.88241 15.8846 6.88241 16.0818V16.5478Z" fill="#C8102E"/>
</svg>

<svg xmlns="http://www.w3.org/2000/svg" width="15" height="20" fill="none"><path d="M7.499 14.258a2.355 2.355 0 01-2.36-2.344 2.355 2.355 0 012.36-2.344 2.355 2.355 0 012.36 2.344 2.355 2.355 0 01-2.36 2.344zm0-3.828c-.824 0-1.495.666-1.495 1.484 0 .819.67 1.484 1.495 1.484.824 0 1.495-.665 1.495-1.484 0-.818-.671-1.484-1.495-1.484z" fill="#707070"/><path d="M14.497.5a1.711 1.711 0 00-1.215-.5H4.288a.434.434 0 00-.306.126L.127 3.954A.428.428 0 000 4.258v14.036C0 19.234.77 20 1.718 20h11.564A1.71 1.71 0 0015 18.294V1.706C15 1.25 14.821.82 14.497.5zM4.467.86h.03v2.76a.85.85 0 01-.852.846H.865v-.03L4.467.859zm9.668 17.434a.849.849 0 01-.852.846H1.717a.85.85 0 01-.853-.846V5.326h2.78c.947 0 1.718-.766 1.718-1.706V.86h7.92a.849.849 0 01.852.846v16.588z" fill="#707070"/><path d="M7.501 17.448c-.38 0-.762-.04-1.14-.117a.43.43 0 01-.344-.421v-.505a4.776 4.776 0 01-.664-.274l-.36.358a.435.435 0 01-.543.055 5.523 5.523 0 01-1.612-1.6.428.428 0 01.056-.54l.36-.357a4.706 4.706 0 01-.275-.66h-.51a.432.432 0 01-.423-.341 5.465 5.465 0 010-2.264.432.432 0 01.424-.342h.509c.075-.227.166-.447.275-.66l-.36-.357a.427.427 0 01-.056-.54 5.522 5.522 0 011.612-1.6.435.435 0 01.543.056l.36.357c.214-.108.436-.2.664-.273v-.506a.43.43 0 01.344-.42 5.58 5.58 0 012.28 0 .43.43 0 01.344.42v.506c.228.074.45.165.665.273l.36-.357a.435.435 0 01.542-.056c.647.42 1.19.959 1.612 1.6a.427.427 0 01-.056.54l-.36.357c.109.213.2.433.276.66h.508c.205 0 .382.142.424.342a5.466 5.466 0 010 2.264.432.432 0 01-.424.341h-.508a4.71 4.71 0 01-.276.66l.36.357a.428.428 0 01.056.54 5.523 5.523 0 01-1.612 1.6.435.435 0 01-.543-.055l-.36-.358a4.776 4.776 0 01-.664.274v.505a.43.43 0 01-.344.42 5.6 5.6 0 01-1.14.118zm-.619-.9a4.75 4.75 0 001.238 0v-.466a.43.43 0 01.327-.417 3.912 3.912 0 001.056-.434.435.435 0 01.529.064l.331.33c.33-.25.623-.541.875-.869l-.331-.33a.428.428 0 01-.066-.524 3.83 3.83 0 00.438-1.049.432.432 0 01.42-.325h.469c.055-.409.055-.82 0-1.229h-.47a.432.432 0 01-.42-.325 3.856 3.856 0 00-.437-1.049.427.427 0 01.066-.524l.331-.33a4.647 4.647 0 00-.875-.869l-.331.33a.435.435 0 01-.529.065 3.912 3.912 0 00-1.056-.435.43.43 0 01-.327-.417V7.28a4.7 4.7 0 00-1.238 0v.466a.43.43 0 01-.327.417 3.91 3.91 0 00-1.056.435.435.435 0 01-.528-.065l-.332-.33c-.33.25-.623.541-.875.87l.332.329c.14.139.167.355.065.524a3.86 3.86 0 00-.437 1.049.432.432 0 01-.42.325h-.47c-.054.409-.054.82 0 1.229h.47c.198 0 .371.134.42.325.093.369.24.722.437 1.049a.427.427 0 01-.065.525l-.332.329c.252.328.545.618.875.869l.332-.33a.435.435 0 01.528-.065c.33.196.685.343 1.056.435a.43.43 0 01.327.417v.466z" fill="#C8102E"/></svg>
